!!!COA: des Prez, Josquin
!!!CDT: ~1450-1521/08/27
!!!COA: Gombert
!!!OTL: Lugebat David Absalon
!!!AGN: Motet
!!!SCT: NJE 14.7
!!!SCA: New Josquin Edition 14.7
!!!voices: 8
**kern	**kern	**kern	**kern	**kern	**kern	**kern	**kern
*part8	*part7	*part6	*part5	*part4	*part3	*part2	*part1
*staff8	*staff7	*staff6	*staff5	*staff4	*staff3	*staff2	*staff1
*Ivox	*Ivox	*Ivox	*Ivox	*Ivox	*Ivox	*Ivox	*Ivox
*I"Bassus2	*I"Bassus1	*I"Baryton2	*I"Baryton1	*I"Tenor2	*I"Tenor1	*I"Altus2	*I"Altus1
*I'B2	*I'B1	*I'XXX2	*I'XXX1	*I'T2	*I'T1	*I'A2	*I'A1
*>[A,B]	*>[A,B]	*>[A,B]	*>[A,B]	*>[A,B]	*>[A,B]	*>[A,B]	*>[A,B]
*>A	*>A	*>A	*>A	*>A	*>A	*>A	*>A
*clefF4	*clefF4	*clefF4	*clefF4	*clefGv2	*clefGv2	*clefG2	*clefG2
*k[b-]	*k[b-]	*k[b-]	*k[b-]	*k[b-]	*k[b-]	*k[b-]	*k[b-]
*d:	*d:	*d:	*d:	*d:	*d:	*d:	*d:
*M2/1	*M2/1	*M2/1	*M2/1	*M2/1	*M2/1	*M2/1	*M2/1
*met(C|)	*met(C|)	*met(C|)	*met(C|)	*met(C|)	*met(C|)	*met(C|)	*met(C|)
!!section: Prima pars: Lugebat David Absalon
!!!OMD: Prima pars
=	=	=	=	=	=	=	=
0r	0r	0r	0r	0r	0r	0g	0r
=3	=3	=3	=3	=3	=3	=3	=3
0r	0r	0r	0r	0r	0r	1cc	0r
.	.	.	.	.	.	1cc	.
=4	=4	=4	=4	=4	=4	=4	=4
0r	0r	0G	0r	0r	0r	1.b-	0r
.	.	.	.	.	.	2a	.
=5	=5	=5	=5	=5	=5	=5	=5
0r	0r	1c	0r	0r	0r	2g	0r
.	.	.	.	.	.	2f	.
.	.	1c	.	.	.	1e	.
=6	=6	=6	=6	=6	=6	=6	=6
0r	0r	1.B-	0r	0d	0r	1d	0r
.	.	.	.	.	.	1f	.
.	.	2A	.	.	.	.	.
=7	=7	=7	=7	=7	=7	=7	=7
0r	0r	2G	0r	1g	0r	2e	0r
.	.	2F	.	.	.	1d	.
.	.	1E	.	1g	.	.	.
.	.	.	.	.	.	2c#i	.
=8	=8	=8	=8	=8	=8	=8	=8
0r	0D	2D	0r	1.f	0r	[0d	0r
.	.	1d	.	.	.	.	.
.	.	2c	.	2e	.	.	.
=9	=9	=9	=9	=9	=9	=9	=9
0r	1G	2B-	0G	2d	0r	0d]	0r
.	.	2A	.	2c	.	.	.
.	1G	2G	.	1B-	.	.	.
.	.	2G	.	.	.	.	.
=10	=10	=10	=10	=10	=10	=10	=10
0r	1.F	0A	2.c	1A	0r	0r	0a
.	.	.	4B-	.	.	.	.
.	.	.	2A	1c	.	.	.
.	2E	.	2G	.	.	.	.
=11	=11	=11	=11	=11	=11	=11	=11
0r	2D	0r	2F	2B-	0r	0r	1dd
.	2C	.	2E	1A	.	.	.
.	1BB-	.	1D	.	.	.	1dd
.	.	.	.	2G	.	.	.
=12	=12	=12	=12	=12	=12	=12	=12
0r	0AA	0r	2E	0A	0A	0r	1.cc
.	.	.	1A	.	.	.	.
.	.	.	2G	.	.	.	2b-
=13	=13	=13	=13	=13	=13	=13	=13
0r	0r	0r	2F	0r	1d	0r	2a
.	.	.	2E	.	.	.	2g
.	.	.	1D	.	1d	.	1f
=14	=14	=14	=14	=14	=14	=14	=14
0AA	0r	0r	1A	0r	1.c	0r	2e
.	.	.	.	.	.	.	1a
.	.	.	1r	.	.	.	.
.	.	.	.	.	2B-	.	2g
=15	=15	=15	=15	=15	=15	=15	=15
1D	0r	0r	1A	0r	2A	0r	2f
.	.	.	.	.	2G	.	2e
1D	.	.	2A	.	1F	.	2d
.	.	.	2A	.	.	.	2d
=16	=16	=16	=16	=16	=16	=16	=16
1.C	0r	0E	1c	0r	0G	0r	0e
.	.	.	2C	.	.	.	.
2BB-	.	.	2D	.	.	.	.
=17	=17	=17	=17	=17	=17	=17	=17
2AA	0r	1A	1E	0A	1c	0r	0r
2GG	.	.	.	.	.	.	.
1FF	.	1A	1F	.	1c	.	.
=18	=18	=18	=18	=18	=18	=18	=18
0r	0GG	2.G	0D	1d	1B-	0g	0r
.	.	4F	.	.	.	.	.
.	.	2D	.	1d	1B-	.	.
.	.	[2G	.	.	.	.	.
=19	=19	=19	=19	=19	=19	=19	=19
0r	1AA	2G]	0r	1.c	2.A	1cc	0r
.	.	4F#i	.	.	.	.	.
.	.	4E	.	.	4G	.	.
.	1AA	1F#i	.	.	2A	1cc	.
.	.	.	.	2A	2A	.	.
=20	=20	=20	=20	=20	=20	=20	=20
0GG	2GG	0G	0r	1B-	1d	1b-	0g
.	2G	.	.	.	.	.	.
.	2GG	.	.	1G	1d	1b-	.
.	[2G	.	.	.	.	.	.
=21	=21	=21	=21	=21	=21	=21	=21
1AA	2G]	0r	0r	1r	1.c	2.a	1cc
.	4F#i	.	.	.	.	.	.
.	4E	.	.	.	.	4g	.
1AA	1F#i	.	.	1A	.	1a	1cc
.	.	.	.	.	2A	.	.
=22	=22	=22	=22	=22	=22	=22	=22
2GG	1G	0r	0G	1d	1B-	0r	1b-
2G	.	.	.	.	.	.	.
2GG	1r	.	.	1d	1G	.	1b-
[2G	.	.	.	.	.	.	.
=23	=23	=23	=23	=23	=23	=23	=23
2G]	0r	0r	1c	1c	1r	2r	2.a
4F#i	.	.	.	.	.	1cc	.
4E	.	.	.	.	.	.	4g
1F#i	.	.	1c	1r	1A	.	1a
.	.	.	.	.	.	2a	.
=24	=24	=24	=24	=24	=24	=24	=24
1G	1GG	1D	2.B-	0r	1d	1.b-	1g
.	.	.	8AL	.	.	.	.
.	.	.	8GJ	.	.	.	.
1r	2.BB-	2.D	2F	.	1d	.	1r
.	.	.	2B-	.	.	4a	.
.	4C	4E	.	.	.	4g	.
=25	=25	=25	=25	=25	=25	=25	=25
0r	2D	2F	2A	1r	1d	2f	1r
.	2BB-	2D	2G	.	.	1g	.
.	2C	2E	1A	2r	2c	.	1a
.	2D	2F	.	2d	2A	2f#i	.
=26	=26	=26	=26	=26	=26	=26	=26
1GG	1GG	2D	2G	2.B-	0d	1g	1.b-
.	.	2G	2D	.	.	.	.
.	.	.	.	4c	.	.	.
2.BB-	1r	2F	2.D	[1d	.	1r	.
.	.	2B-	.	.	.	.	4a
4C	.	.	4E	.	.	.	4g
=27	=27	=27	=27	=27	=27	=27	=27
2D	0r	2A	2F	2d]	0r	1r	2f
2BB-	.	2G	2D	2d	.	.	1g
2C	.	2A	2E	2c	.	1a	.
2D	.	2A	2F	2A	.	.	2f#i
=28	=28	=28	=28	=28	=28	=28	=28
1GG	1GG	1G	1D	0d	1B-	1b-	2g
.	.	.	.	.	.	.	2g
2r	1G	1r	1r	.	1B-	2r	1b-
2GG	.	.	.	.	.	2g	.
=29	=29	=29	=29	=29	=29	=29	=29
1G	2r	1d	1B-	0r	0r	1b-	2r
.	2GG	.	.	.	.	.	2g
2r	1G	1d	1B-	.	.	2r	1b-
2GG	.	.	.	.	.	2g	.
=30	=30	=30	=30	=30	=30	=30	=30
1G	2r	2r	2r	1d	1B-	2.b-	0r
.	2GG	2d	2G	.	.	.	.
.	.	.	.	.	.	4a	.
1r	2G	2d	2B-	1d	1B-	2g	.
.	2G	2B-	2G	.	.	2b-	.
=31	=31	=31	=31	=31	=31	=31	=31
0r	2F	2c	2A	0r	0r	2a	0r
.	2D	2d	2B-	.	.	2f	.
.	2E	2d	2G	.	.	2g	.
.	2E	2c#i	2G	.	.	2g	.
=32	=32	=32	=32	=32	=32	=32	=32
1D	1D	1d	1A	1r	1d	1a	1a
1D	1r	1r	1r	1d	1f	1r	1a
=33	=33	=33	=33	=33	=33	=33	=33
0r	1D	1A	1F	1f	0r	1a	0r
.	1D	1A	1F	2r	.	1a	.
.	.	.	.	2d	.	.	.
=34	=34	=34	=34	=34	=34	=34	=34
1D	0r	2r	2r	2.f	0r	0r	1a
.	.	2A	2D	.	.	.	.
.	.	.	.	4e	.	.	.
2D	.	2A	2F	2d	.	.	1a
2D	.	2F	2D	2f	.	.	.
=35	=35	=35	=35	=35	=35	=35	=35
2C	0r	2G	2E	2e	1r	1r	0r
2AA	.	2A	2F	2c	.	.	.
2BB-	.	2A	2D	2d	1r	1b-	.
2BB-	.	2G	2D	2d	.	.	.
=36	=36	=36	=36	=36	=36	=36	=36
1AA	0AA	1A	0E	1c	0e	1cc	0r
1r	.	1A	.	1c	.	2cc	.
.	.	.	.	.	.	2a	.
=37	=37	=37	=37	=37	=37	=37	=37
0r	1D	1F	0r	1d	1f	0a	1r
.	1D	1D	.	1d	1f	.	1a
=38	=38	=38	=38	=38	=38	=38	=38
1r	1AA	0E	0A	1c	1e	0r	1cc
1AA	1r	.	.	1e	1c	.	2cc
.	.	.	.	.	.	.	2a
=39	=39	=39	=39	=39	=39	=39	=39
1D	0r	0r	1F	1f	1d	1r	1a
1D	.	.	1D	1f	1d	1a	1r
=40	=40	=40	=40	=40	=40	=40	=40
0AA	0r	1A	0E	2e	0c	2.cc	1e
.	.	.	.	4c	.	.	.
.	.	.	.	4d	.	4b-	.
.	.	2A	.	4e	.	2a	2e
.	.	.	.	4f	.	.	.
.	.	2A	.	[2e	.	2cc	2e
=41	=41	=41	=41	=41	=41	=41	=41
0r	0r	2G	0r	4e]	0r	2b-	2g
.	.	.	.	4d	.	.	.
.	.	2B-	.	1d	.	2g	2d
.	.	2A	.	.	.	2a	2f
.	.	2A	.	2c#i	.	2a	2e
=42	=42	=42	=42	=42	=42	=42	=42
0D	1r	1D	0A	0d	1r	0f	1d
.	1D	1r	.	.	1d	.	1r
=43	=43	=43	=43	=43	=43	=43	=43
1GG	1G	0r	1B-	0r	1d	0r	0r
1GG	1G	.	1B-	.	1d	.	.
=44	=44	=44	=44	=44	=44	=44	=44
0D	1F	0A	1A	1r	0d	0a	0f
.	1D	.	1r	1d	.	.	.
=45	=45	=45	=45	=45	=45	=45	=45
0r	1GG	1G	0r	1d	0r	1b-	1g
.	1GG	1G	.	1d	.	1b-	1g
=46	=46	=46	=46	=46	=46	=46	=46
1r	0D	1A	1r	1d	1r	2a	1f
.	.	.	.	.	.	4f	.
.	.	.	.	.	.	4g	.
1D	.	1r	1A	1r	1d	4a	1f
.	.	.	.	.	.	4b-	.
.	.	.	.	.	.	[2a	.
=47	=47	=47	=47	=47	=47	=47	=47
2C	1r	1r	2c	1r	2e	2a]	2.g
2E	.	.	2G	.	2c	1g	.
.	.	.	.	.	.	.	4e
1D	1D	1A	1A	1d	1d	.	4f
.	.	.	.	.	.	.	4g
.	.	.	.	.	.	2f	[2a
=48	=48	=48	=48	=48	=48	=48	=48
1r	2C	2c	1r	2e	1r	2g	2a]
.	2E	2G	.	2c	.	2e	1g
2r	1D	1A	2r	1d	2r	4f	.
.	.	.	.	.	.	4g	.
2D	.	.	2A	.	2d	[2a	2f
=49	=49	=49	=49	=49	=49	=49	=49
2C	1r	1r	2c	1r	2e	2a]	2g
2E	.	.	2G	.	2c	1g	2e
1D	2r	2r	1A	2r	1d	.	4f
.	.	.	.	.	.	.	4g
.	2D	2A	.	2d	.	2f	[2a
=50	=50	=50	=50	=50	=50	=50	=50
1r	2C	2c	1r	2e	1r	2g	2a]
.	2E	2G	.	2c	.	2e	1g
2r	2D	1A	2r	1d	2r	4f	.
.	.	.	.	.	.	4g	.
2D	2F	.	2A	.	2d	[2a	2f
=51	=51	=51	=51	=51	=51	=51	=51
2C	1E	0r	2c	0r	2e	2a]	1g
2E	.	.	2G	.	2c	1g	.
1D	1F	.	2A	.	1d	.	1r
.	.	.	2A	.	.	2f#i	.
=52	=52	=52	=52	=52	=52	=52	=52
0GG	0D	1G	1G	1d	0B-	0g	1b-
.	.	2G	1r	2d	.	.	2b-
.	.	2G	.	2d	.	.	2b-
=53	=53	=53	=53	=53	=53	=53	=53
0r	0r	2.D	0r	2.f	0r	0r	1.a
.	.	4E	.	4e	.	.	.
.	.	2F	.	4d	.	.	.
.	.	.	.	4c	.	.	.
.	.	2G	.	[2e	.	.	2g
=54	=54	=54	=54	=54	=54	=54	=54
0r	0r	2A	0r	2e]	0r	0r	1f
.	.	2B-	.	1d	.	.	.
.	.	2G	.	.	.	.	1e
.	.	2A	.	2c#i	.	.	.
=55	=55	=55	=55	=55	=55	=55	=55
1GG	1G	0D	1B-	0d	1d	0r	0d
2GG	2G	.	2B-	.	2d	.	.
2GG	2G	.	2B-	.	2d	.	.
=56	=56	=56	=56	=56	=56	=56	=56
2.D	2.F	0r	2A	0r	1.f	0r	0r
.	.	.	1d	.	.	.	.
4E	4G	.	.	.	.	.	.
2F	2A	.	.	.	.	.	.
2C	2G	.	2c	.	[2e	.	.
=57	=57	=57	=57	=57	=57	=57	=57
2D	2F	0r	2A	0r	2e]	0r	0r
2GG	2G	.	2B-	.	1d	.	.
1AA	1E	.	1A	.	.	.	.
.	.	.	.	.	2c#i	.	.
=58	=58	=58	=58	=58	=58	=58	=58
0r	0D	1D	0F	1f	0d	1a	0r
.	.	2F	.	2f	.	2a	.
.	.	2F	.	2f	.	2a	.
=59	=59	=59	=59	=59	=59	=59	=59
0r	0r	1.C	0r	1.e	0r	2.cc	1g
.	.	.	.	.	.	4b-	.
.	.	.	.	.	.	2cc	2g
.	.	2G	.	2d	.	[2b-	2g
=60	=60	=60	=60	=60	=60	=60	=60
0r	0r	2A	0r	1c	0r	2b-]	2e
.	.	2F	.	.	.	1a	2f
.	.	1G	.	1B-	.	.	2.d
.	.	.	.	.	.	2g	.
.	.	.	.	.	.	.	4e
=61	=61	=61	=61	=61	=61	=61	=61
0D	0r	1D	0A	0A	0d	0a	1f
.	.	1r	.	.	.	.	1f
=62	=62	=62	=62	=62	=62	=62	=62
1E-X	0r	0r	1G	0r	1B-	0r	1g
1E-i	.	.	1G	.	1c	.	1g
=63	=63	=63	=63	=63	=63	=63	=63
1D	0D	0A	1A	0d	1d	1r	1f
1r	.	.	1r	.	1r	1f	1r
=64	=64	=64	=64	=64	=64	=64	=64
0r	1E-X	1G	0r	1B-	0r	1g	0r
.	1E-i	1G	.	1c	.	1g	.
=65	=65	=65	=65	=65	=65	=65	=65
0D	1D	0A	0A	1d	0d	1f	0f
.	1r	.	.	1r	.	1r	.
=66	=66	=66	=66	=66	=66	=66	=66
1E-X	1r	0r	1G	0r	1B-	0r	1g
1E-i	1C	.	1G	.	1c	.	1g
=67	=67	=67	=67	=67	=67	=67	=67
2D	2.F	0r	2A	0A	0d	1a	0f
2D	.	.	4D	.	.	.	.
.	4E	.	4E	.	.	.	.
2D	2D	.	4F	.	.	2a	.
.	.	.	4G	.	.	.	.
2D	2F	.	[2A	.	.	2f	.
=68	=68	=68	=68	=68	=68	=68	=68
1C	1E	0r	2A]	1c	0r	1g	0r
.	.	.	1G	.	.	.	.
2AA	1C	.	.	1c	.	1a	.
2AA	.	.	2F#i	.	.	.	.
=69	=69	=69	=69	=69	=69	=69	=69
1GG	2D	2r	1G	1B-	1d	2b-	0r
.	2D	2B-	.	.	.	2b-	.
1r	2F	2A	1r	1r	2c	2f	.
.	2E	2G	.	.	2c	2g	.
=70	=70	=70	=70	=70	=70	=70	=70
2r	1D	1A	1F	2r	1d	1f	1a
2D	.	.	.	2d	.	.	.
2F	1r	1r	2A	2c	1r	1r	2f
2E	.	.	2G	2c	.	.	2g
=71	=71	=71	=71	=71	=71	=71	=71
1D	2r	2r	1A	1d	2r	2r	1f
.	2D	2F	.	.	2d	2a	.
1r	2F	2A	1r	1r	2c	2f	1r
.	2E	2G	.	.	2c	2g	.
=72	=72	=72	=72	=72	=72	=72	=72
1r	0D	0A	1r	1r	0d	0f	1r
1D	.	.	1F	2r	.	.	1a
.	.	.	.	2d	.	.	.
=73	=73	=73	=73	=73	=73	=73	=73
2GG	1r	1r	2G	2d	1r	1r	2b-
2GG	.	.	2B-	2d	.	.	2g
2C	2r	2r	2A	2e-X	2r	2r	2g
2D	2D	2D	2A	2d	2d	2a	2f#i
=74	=74	=74	=74	=74	=74	=74	=74
1GG	2D	2G	1G	1B-	2d	2b-	1g
.	2BB-	2B-	.	.	2d	2g	.
2r	2C	2A	2r	2r	2e-X	2g	2r
2D	2D	2A	2D	2d	2d	2f#i	2a
=75	=75	=75	=75	=75	=75	=75	=75
2D	1GG	1G	2G	2d	1B-	1g	2b-
2BB-	.	.	2B-	2d	.	.	2g
2C	2r	2r	2A	2e-X	2r	2r	2g
2D	2D	2D	2A	2d	2d	2a	2f#i
=76	=76	=76	=76	=76	=76	=76	=76
1GG	2D	2G	1G	1B-	2d	2b-	1g
.	2BB-	2B-	.	.	2d	2g	.
2r	2C	2A	1r	1r	2e-X	2g	2r
2D	2D	2A	.	.	2d	2f#i	2a
=77	=77	=77	=77	=77	=77	=77	=77
2D	2GG	0G	0r	1r	2B-	1g	2b-
2E	2C	.	.	.	1c	.	2g
2D	2GG	.	.	2r	.	1r	2g
2D	2GG	.	.	2G	2Bni	.	2g
=78	=78	=78	=78	=78	=78	=78	=78
1C	2C	0r	0r	2G	1c	0g	2.e
.	2E	.	.	2G	.	.	.
.	.	.	.	.	.	.	4f
2BB-	2D	.	.	2B-	1r	.	1g
[2C	[2E	.	.	4A	.	.	.
.	.	.	.	4G	.	.	.
=79	=79	=79	=79	=79	=79	=79	=79
2C]	2E]	0r	1r	2A	0r	1cc	0r
2BB-	2D	.	.	1G	.	.	.
1AA	1C	.	1A	.	.	1cc	.
.	.	.	.	2F#i	.	.	.
=80	=80	=80	=80	=80	=80	=80	=80
0GG	0D	0G	2.B-	1G	0r	1.b-	0r
.	.	.	4A	.	.	.	.
.	.	.	2G	1r	.	.	.
.	.	.	2F	.	.	2a	.
=81	=81	=81	=81	=81	=81	=81	=81
0r	0r	1c	2E	0r	0r	2g	0r
.	.	.	2D	.	.	2f	.
.	.	1c	1C	.	.	1e	.
=82	=82	=82	=82	=82	=82	=82	=82
0r	0r	1.B-	2G	0d	0r	1d	0r
.	.	.	1d	.	.	.	.
.	.	.	.	.	.	1f	.
.	.	2A	2c	.	.	.	.
=83	=83	=83	=83	=83	=83	=83	=83
0r	0r	2G	2B-	1g	0r	2e	0r
.	.	2F	2A	.	.	1d	.
.	.	1E	2G	1g	.	.	.
.	.	.	2G	.	.	2c#i	.
=84	=84	=84	=84	=84	=84	=84	=84
0r	0D	2D	1A	1.f	0r	0e	0r
.	.	1d	.	.	.	.	.
.	.	.	1r	.	.	.	.
.	.	2c	.	2e	.	.	.
=85	=85	=85	=85	=85	=85	=85	=85
0r	1G	2B-	0G	2d	0r	0d	0r
.	.	2A	.	2c	.	.	.
.	1G	2G	.	1B-	.	.	.
.	.	2G	.	.	.	.	.
=86	=86	=86	=86	=86	=86	=86	=86
0r	1.F	0A	2.c	1A	0r	0r	0a
.	.	.	4B-	.	.	.	.
.	.	.	2A	1c	.	.	.
.	2E	.	2G	.	.	.	.
=87	=87	=87	=87	=87	=87	=87	=87
0r	2D	0r	2F	2B-	0r	0r	1dd
.	2C	.	2E	1A	.	.	.
.	1BB-	.	1D	.	.	.	1dd
.	.	.	.	2G	.	.	.
=88	=88	=88	=88	=88	=88	=88	=88
0r	0AA	0r	2E	0A	0A	0r	1.cc
.	.	.	1A	.	.	.	.
.	.	.	2G	.	.	.	2b-
=89	=89	=89	=89	=89	=89	=89	=89
0r	0r	0r	2F	0r	1d	0r	2a
.	.	.	2E	.	.	.	2g
.	.	.	2D	.	1d	.	1f
.	.	.	2D	.	.	.	.
=90	=90	=90	=90	=90	=90	=90	=90
0AA	0r	0r	1A	0r	1.c	0r	2e
.	.	.	.	.	.	.	1a
.	.	.	1r	.	.	.	.
.	.	.	.	.	2B-	.	2g
=91	=91	=91	=91	=91	=91	=91	=91
1D	0r	0r	1A	0r	2A	0r	2f
.	.	.	.	.	2G	.	2e
1D	.	.	2A	.	1F	.	2d
.	.	.	2A	.	.	.	2d
=92	=92	=92	=92	=92	=92	=92	=92
1.C	0r	0E	1c	0r	0G	0r	0e
.	.	.	2C	.	.	.	.
2BB-	.	.	2D	.	.	.	.
=93	=93	=93	=93	=93	=93	=93	=93
2AA	0r	1A	1E	0A	1c	0r	0r
2GG	.	.	.	.	.	.	.
1FF	.	1A	1F	.	1c	.	.
=94	=94	=94	=94	=94	=94	=94	=94
0r	0GG	2.G	0D	1d	1B-	0g	0r
.	.	4F	.	.	.	.	.
.	.	2D	.	1d	1B-	.	.
.	.	[2G	.	.	.	.	.
=95	=95	=95	=95	=95	=95	=95	=95
0r	1AA	2G]	0r	1c	2.A	1cc	0r
.	.	4F#i	.	.	.	.	.
.	.	4E	.	.	4G	.	.
.	1AA	1F#i	.	2c	2A	1cc	.
.	.	.	.	2A	2A	.	.
=96	=96	=96	=96	=96	=96	=96	=96
0GG	2GG	0G	0r	2B-	1d	1b-	0g
.	2G	.	.	2B-	.	.	.
.	2GG	.	.	1G	1d	2b-	.
.	[2G	.	.	.	.	2b-	.
=97	=97	=97	=97	=97	=97	=97	=97
1AA	2G]	0r	0r	1r	1c	2.a	1cc
.	4F#i	.	.	.	.	.	.
.	4E	.	.	.	.	4g	.
1AA	1F#i	.	.	1A	2c	1a	1cc
.	.	.	.	.	2A	.	.
=98	=98	=98	=98	=98	=98	=98	=98
2GG	1G	0r	0G	1d	2B-	0r	1b-
2G	.	.	.	.	2B-	.	.
2GG	1r	.	.	1d	1G	.	2b-
[2G	.	.	.	.	.	.	2b-
=99	=99	=99	=99	=99	=99	=99	=99
2G]	0r	0r	1c	1c	1r	2r	2.a
4F#i	.	.	.	.	.	2cc	.
4E	.	.	.	.	.	.	4g
1F#i	.	.	1c	1r	1A	2cc	1a
.	.	.	.	.	.	2a	.
=100	=100	=100	=100	=100	=100	=100	=100
1G	1GG	1D	2.B-	0r	1.d	1.b-	1g
.	.	.	8AL	.	.	.	.
.	.	.	8GJ	.	.	.	.
1r	2.BB-	2.D	2F	.	.	.	1r
.	.	.	2B-	.	2d	4a	.
.	4C	4E	.	.	.	4g	.
=101	=101	=101	=101	=101	=101	=101	=101
0r	2D	2F	2A	1r	2d	2f	1r
.	2BB-	2D	2G	.	2d	1g	.
.	2C	2E	2A	2r	2c	.	1a
.	2D	2F	2A	2d	2A	2f#i	.
=102	=102	=102	=102	=102	=102	=102	=102
1GG	1GG	2D	2G	2.B-	0d	1g	1.b-
.	.	2G	2D	.	.	.	.
.	.	.	.	4c	.	.	.
2.BB-	1r	2F	2.D	[1d	.	1r	.
.	.	2B-	.	.	.	.	4a
4C	.	.	4E	.	.	.	4g
=103	=103	=103	=103	=103	=103	=103	=103
2D	0r	2A	2F	2d]	0r	1r	2f
2BB-	.	2G	2D	2d	.	.	1g
2C	.	2A	2E	2c	.	1a	.
2D	.	2A	2F	2A	.	.	2f#i
=104	=104	=104	=104	=104	=104	=104	=104
2GG	0r	0G	2D	2d	1B-	2b-	1g
2GG	.	.	2G	2d	.	2b-	.
2C	.	.	2E-i	2e-i	2c	1g	2r
2C	.	.	2C	2e-i	2c	.	2g
=105	=105	=105	=105	=105	=105	=105	=105
1GG	1GG	2r	1D	2d	2B-	1r	2b-
.	.	2G	.	2B-	2d	.	2b-
1r	2C	2E-i	1r	2c	2e-i	2r	1g
.	2C	2C	.	2c	2e-i	2g	.
=106	=106	=106	=106	=106	=106	=106	=106
2r	1GG	1D	1G	2B-	2d	2b-	1r
2GG	.	.	.	2d	2B-	2b-	.
2C	1r	1r	2E-i	2e-i	2c	1g	2r
2C	.	.	2C	2e-i	2c	.	2g
=107	=107	=107	=107	=107	=107	=107	=107
1GG	1GG	1G	1D	2d	2B-	1r	2b-
.	.	.	.	2B-	2d	.	2b-
1r	2C	2E-i	1r	2c	2e-i	2r	1g
.	2C	2C	.	2c	2e-i	2g	.
=108	=108	=108	=108	=108	=108	=108	=108
1GG	1GG	1D	1G	2B-	2d	2b-	1r
.	.	.	.	2d	2B-	2b-	.
2C	1r	1r	2E-i	2e-i	2c	1g	2r
2C	.	.	2C	2e-i	2c	.	2g
=109	=109	=109	=109	=109	=109	=109	=109
[0GGl	[0Dl	[0Gl	[0Dl	[0dl	[0B-l	2r	2b-
.	.	.	.	.	.	2g	2b-
.	.	.	.	.	.	2b-	2.g
.	.	.	.	.	.	2b-	.
.	.	.	.	.	.	.	4a
=110	=110	=110	=110	=110	=110	=110	=110
0GG]	0D]	0G]	0D]	0d]	0B-]	0gl	0b-l
!!LO:LB:i:g=z
=111||	=111||	=111||	=111||	=111||	=111||	=111||	=111||
*>B	*>B	*>B	*>B	*>B	*>B	*>B	*>B
*clefF4	*clefF4	*clefF4	*clefF4	*clefGv2	*clefGv2	*clefG2	*clefG2
*k[b-]	*k[b-]	*k[b-]	*k[b-]	*k[b-]	*k[b-]	*k[b-]	*k[b-]
*M2/1	*M2/1	*M2/1	*M2/1	*M2/1	*M2/1	*M2/1	*M2/1
*met(C|)	*met(C|)	*met(C|)	*met(C|)	*met(C|)	*met(C|)	*met(C|)	*met(C|)
!!section: Secunda pars: Porrorex operuit
!!!OMD: Secunda pars: Porrorex operuit
0r	0r	0r	0r	0r	2r	0r	0g
.	.	.	.	.	2G	.	.
.	.	.	.	.	2B-	.	.
.	.	.	.	.	2c	.	.
=112	=112	=112	=112	=112	=112	=112	=112
0r	1D	0r	0r	2r	1d	0r	1f
.	.	.	.	2d	.	.	.
.	2G	.	.	2d	1r	.	1g
.	2G	.	.	2e	.	.	.
=113	=113	=113	=113	=113	=113	=113	=113
0r	1F	0r	0r	2f	1c	2r	1.a
.	.	.	.	2F	.	2f	.
.	1r	.	.	2A	2c	2f	.
.	.	.	.	2G	2d	2g	2b-
=114	=114	=114	=114	=114	=114	=114	=114
0r	2r	1r	0r	0F	1.f	2.a	1.cc
.	2F	.	.	.	.	.	.
.	.	.	.	.	.	4g	.
.	2F	2r	.	.	.	4a	.
.	.	.	.	.	.	4b-	.
.	2F	2F	.	.	4e	[2a	2cc
.	.	.	.	.	4d	.	.
=115	=115	=115	=115	=115	=115	=115	=115
0r	2G	2.B-	0r	1r	1d	4a]	2.b-
.	.	.	.	.	.	4g	.
.	4F	.	.	.	.	1g	.
.	4E	4c	.	.	.	.	8aL
.	.	.	.	.	.	.	8gJ
.	4D	[1d	.	2r	2r	.	2a
.	4C	.	.	.	.	.	.
.	2D	.	.	2F	2A	2f#i	2a
=116	=116	=116	=116	=116	=116	=116	=116
2r	1GG	2d]	0G	1.B-	2B-	0g	2g
2GG	.	2D	.	.	2G	.	2d
2BB-	1r	2G	.	.	2.d	.	2d
2C	.	2C	.	2G	.	.	2e
.	.	.	.	.	8cL	.	.
.	.	.	.	.	8B-J	.	.
=117	=117	=117	=117	=117	=117	=117	=117
1D	2r	1F	1F	2d	2.A	2r	1f
.	2D	.	.	2D	.	2a	.
.	.	.	.	.	4F	.	.
1r	2E-X	1r	1G	2G	2B-	2g	1r
.	2E-X	.	.	2C	2c	2g	.
=118	=118	=118	=118	=118	=118	=118	=118
1r	0D	1r	0A	1.F	0d	0f	0a
2r	.	2r	.	.	.	.	.
2D	.	2F	.	2D	.	.	.
=119	=119	=119	=119	=119	=119	=119	=119
2E-X	2r	2B-	1r	2G	0r	2r	2g
2E-X	2C	2c	.	2G	.	2g	2g
1D	2.F	1d	1A	2.A	.	2dd	2f
.	.	.	.	.	.	2dd	4d
.	4G	.	.	8GL	.	.	4e
.	.	.	.	8FJ	.	.	.
=120	=120	=120	=120	=120	=120	=120	=120
2r	0A	1r	1.c	1F	1f	2.cc	4f
.	.	.	.	.	.	.	4g
2F	.	.	.	.	.	.	4a
.	.	.	.	.	.	4b-	4b-
2F	.	2r	.	2r	2f	1a	2cc
2F	.	2D	2d	2F	2f	.	[2a
=121	=121	=121	=121	=121	=121	=121	=121
2G	0r	2G	2B-	2B-	2d	0r	4a]
.	.	.	.	.	.	.	4g
4F	.	2C	4A	2c	2e	.	1g
4E	.	.	4G	.	.	.	.
4D	.	1F	2A	2d	4f	.	.
4C	.	.	.	.	4e	.	.
2D	.	.	2A	2d	4d	.	2f#i
.	.	.	.	.	4c	.	.
=122	=122	=122	=122	=122	=122	=122	=122
[0GG	0r	1D	[0G	[0d	2B-	1r	0g
.	.	.	.	.	2G	.	.
.	.	2r	.	.	1g	1b-	.
.	.	2D	.	.	.	.	.
=123	=123	=123	=123	=123	=123	=123	=123
0GG]	2r	2D	0G]	0d_	1g	1b-	0r
.	2GG	2D	.	.	.	.	.
.	2GG	1G	.	.	1g	1b-	.
.	2GG	.	.	.	.	.	.
=124	=124	=124	=124	=124	=124	=124	=124
0r	0D	2r	0r	0d]	1.f	1.a	0r
.	.	2F	.	.	.	.	.
.	.	2F	.	.	.	.	.
.	.	2F	.	.	4e	4g	.
.	.	.	.	.	4d	4f	.
=125	=125	=125	=125	=125	=125	=125	=125
0r	0r	2c	0r	0r	2e	4g	0r
.	.	.	.	.	.	4f	.
.	.	2d	.	.	1d	4e	.
.	.	.	.	.	.	4d	.
.	.	1A	.	.	.	1e	.
.	.	.	.	.	2c#i	.	.
=126	=126	=126	=126	=126	=126	=126	=126
0GG	[0B-	1D	1r	0g	1d	2d	2r
.	.	.	.	.	.	4G	2.g
.	.	.	.	.	.	4A	.
.	.	1G	[1d	.	2r	4B-	.
.	.	.	.	.	.	4c	4a
.	.	.	.	.	[2G	[2d	4b-
.	.	.	.	.	.	.	4cc
=127	=127	=127	=127	=127	=127	=127	=127
1GG	0B-]	1G	1d]	1g	4G]	2d]	0dd
.	.	.	.	.	4A	.	.
.	.	.	.	.	4B-	4G	.
.	.	.	.	.	4c	4A	.
1GG	.	1G	[1d	1g	2d	4B-	.
.	.	.	.	.	.	4c	.
.	.	.	.	.	[2D	4d	.
.	.	.	.	.	.	4e	.
=128	=128	=128	=128	=128	=128	=128	=128
0D	1.A	2D	1d]	[0f	4D]	4f	2r
.	.	.	.	.	4E	4g	.
.	.	2D	.	.	4F	1a	4d
.	.	.	.	.	4G	.	4e
.	.	4D	1d	.	1A	.	4f
.	.	4E	.	.	.	.	4g
.	4G	4F	.	.	.	2d	4a
.	4F	4G	.	.	.	.	4b-
=129	=129	=129	=129	=129	=129	=129	=129
2r	0F	0A	1.c	0f]	2r	1.a	0cc
2.FF	.	.	.	.	4F	.	.
.	.	.	.	.	4G	.	.
.	.	.	.	.	4A	.	.
4GG	.	.	.	.	4B-	.	.
4AA	.	.	4B-	.	[2c	4g	.
4BB-	.	.	4A	.	.	4f	.
=130	=130	=130	=130	=130	=130	=130	=130
1.C	2r	2r	1G	2r	4c]	2e	2r
.	.	.	.	.	4d	.	.
.	2G	2E	.	2c	4e	2c	2cc
.	.	.	.	.	4d	.	.
.	2E	4C	2r	2c	4e	[1g	2cc
.	.	4D	.	.	4f	.	.
4BB-	2C	4E	2G	2G	[2g	.	2cc
4AA	.	4F	.	.	.	.	.
=131	=131	=131	=131	=131	=131	=131	=131
1.GG	2D	1.G	4B-	1d	2g]	0g]	2.b-
.	.	.	4A	.	.	.	.
.	2D	.	4B-	.	4f	.	.
.	.	.	4c	.	4e	.	4a
.	1GG	.	1d	1r	1d	.	4g
.	.	.	.	.	.	.	4f
2G	.	4F	.	.	.	.	[2b-
.	.	4E	.	.	.	.	.
=132	=132	=132	=132	=132	=132	=132	=132
2G	1r	1D	2d	2r	[0d	0r	4b-]
.	.	.	.	.	.	.	4a
2F	.	.	8dL	2f	.	.	1a
.	.	.	8c	.	.	.	.
.	.	.	8B-	.	.	.	.
.	.	.	8AJ	.	.	.	.
2G	2r	1r	2B-	2d	.	.	.
2G	2G	.	2B-	4B-	.	.	2g
.	.	.	.	4c	.	.	.
=133	=133	=133	=133	=133	=133	=133	=133
1D	2G	2r	1A	4d	0d]	2r	1a
.	.	.	.	4e	.	.	.
.	2F	2A	.	2f	.	2a	.
2r	2G	2B-	1r	2d	.	2a	1r
2G	2G	2B-	.	2B-	.	2g	.
=134	=134	=134	=134	=134	=134	=134	=134
2G	1D	2A	0d	2r	2r	2a	2r
2F	.	2A	.	2A	2f	2a	2a
2G	2r	1d	.	2B-	2d	1d	2a
2G	2G	.	.	2B-	4B-	.	2g
.	.	.	.	.	4c	.	.
=135	=135	=135	=135	=135	=135	=135	=135
1D	2G	2r	1r	2A	4d	2r	2a
.	.	.	.	.	4e	.	.
.	2F	2A	.	2A	2f	2a	2a
1r	2G	2B-	1d	1d	2d	2a	1d
.	2G	2B-	.	.	2B-	2g	.
=136	=136	=136	=136	=136	=136	=136	=136
0r	1D	2A	1d	2r	1f	2a	2r
.	.	2D	.	2A	.	2a	2a
.	1r	1G	1d	1B-	1r	1d	2a
.	.	.	.	.	.	.	2g
=137	=137	=137	=137	=137	=137	=137	=137
1FF	1F	0C	1.c	1A	0f	1r	1.a
2FF	2F	.	.	[1c	.	1c	.
2FF	2F	.	4B-	.	.	.	2f
.	.	.	4A	.	.	.	.
=138	=138	=138	=138	=138	=138	=138	=138
1.C	4E	2r	1G	2c]	0c	2c	0g
.	4D	.	.	.	.	.	.
.	4E	2E	.	4B-	.	2.cc	.
.	4F	.	.	4A	.	.	.
.	[1G	1E	1r	2G	.	.	.
.	.	.	.	.	.	4b-	.
4BB-	.	.	.	2c	.	4g	.
4AA	.	.	.	.	.	4a	.
=139	=139	=139	=139	=139	=139	=139	=139
4GG	1G]	0G	1d	0B-	0g	2.b-	2r
4AA	.	.	.	.	.	.	.
4BB-	.	.	.	.	.	.	2b-
4C	.	.	.	.	.	4a	.
2.D	1GG	.	2d	.	.	1g	2b-
.	.	.	2d	.	.	.	2b-
4E	.	.	.	.	.	.	.
=140	=140	=140	=140	=140	=140	=140	=140
0F	2r	0A	1.c	0r	0f	0r	1.a
.	1FF	.	.	.	.	.	.
.	2FF	.	4B-	.	.	.	4g
.	.	.	4A	.	.	.	4f
=141	=141	=141	=141	=141	=141	=141	=141
0r	1C	0r	1G	0r	1g	0r	1e
.	2FF	.	1c	.	2.f	.	1a
.	2FF	.	.	.	.	.	.
.	.	.	.	.	4e	.	.
=142	=142	=142	=142	=142	=142	=142	=142
0r	2GG	0r	2B-	0r	2d	0r	2g
.	2AA	.	2A	.	2c	.	2f
.	2BB-	.	2G	.	2d	.	2f
.	2C	.	2G	.	2c	.	2e
=143	=143	=143	=143	=143	=143	=143	=143
1r	0FF	1r	0F	1r	1c	1r	1f
1FF	.	1c	.	1f	1r	1a	1r
=144	=144	=144	=144	=144	=144	=144	=144
2GG	0r	2B-	1r	2d	0r	2g	1r
2AA	.	2A	.	2c	.	2f	.
2BB-	.	2G	2r	2d	.	2f	2r
2C	.	2G	2G	2c	.	2e	2g
=145	=145	=145	=145	=145	=145	=145	=145
2FF	0r	1F	4c	1A	2r	1f	4a
.	.	.	4B-	.	.	.	4g
1F	.	.	4c	.	1f	.	4a
.	.	.	4d	.	.	.	4b-
.	.	1r	2c	1r	.	1r	2a
4G	.	.	2B-	.	4d	.	[2g
4E-X	.	.	.	.	4e-X	.	.
=146	=146	=146	=146	=146	=146	=146	=146
2F	0r	1r	1A	0r	1c	1r	2g]
2FF	.	.	.	.	.	.	1f
2C	.	2r	1G	.	2c	2r	.
2C	.	2G	.	.	2c	2g	2e
=147	=147	=147	=147	=147	=147	=147	=147
1FF	2r	4c	1F	2r	1A	4a	1f
.	.	4B-	.	.	.	4g	.
.	1F	4c	.	1f	.	4a	.
.	.	4d	.	.	.	4b-	.
1r	.	2c	1r	.	1r	2a	1r
.	4G	2B-	.	4d	.	[2g	.
.	4E-X	.	.	4e-X	.	.	.
=148	=148	=148	=148	=148	=148	=148	=148
0r	2F	1A	0r	1c	0r	2g]	0r
.	2FF	.	.	.	.	1f	.
.	2C	1G	.	2c	.	.	.
.	2C	.	.	2c	.	2e	.
=149	=149	=149	=149	=149	=149	=149	=149
1r	[0FF	0F	0A	0c	1r	0f	0a
1F	.	.	.	.	1c	.	.
=150	=150	=150	=150	=150	=150	=150	=150
1F	1FF]	0r	1c	0r	1F	0r	1a
1E	1r	.	1c	.	1G	.	1g
=151	=151	=151	=151	=151	=151	=151	=151
0D	1r	0A	0d	1r	1A	0a	0f
.	1F	.	.	1A	1r	.	.
=152	=152	=152	=152	=152	=152	=152	=152
0r	1F	1c	0r	1F	0r	1a	0r
.	1E	1c	.	1G	.	1g	.
=153	=153	=153	=153	=153	=153	=153	=153
1r	0D	0d	0A	1A	1r	0f	1r
1F	.	.	.	1r	1A	.	1a
=154	=154	=154	=154	=154	=154	=154	=154
1F	0r	0r	1c	0r	1F	0r	1a
1E	.	.	1c	.	1G	.	1g
=155	=155	=155	=155	=155	=155	=155	=155
2.D	0r	1r	0d	1r	1.A	1r	0f
4C	.	.	.	.	.	.	.
4D	.	2r	.	2r	.	1a	.
4E	.	.	.	.	.	.	.
[2F	.	[2A	.	2c	4G	.	.
.	.	.	.	.	4F	.	.
=156	=156	=156	=156	=156	=156	=156	=156
2F]	2r	2A]	1r	2f	[0F	2.cc	1a
2FF	1A	2.c	.	2f	.	.	.
.	.	.	.	.	.	4b-	.
[1FF	.	.	1A	2.c	.	4a	[1cc
.	.	4B-	.	.	.	4g	.
.	[2c	4A	.	.	.	[2a	.
.	.	4G	.	4B-	.	.	.
=157	=157	=157	=157	=157	=157	=157	=157
1FF]	4c]	2.F	1.c	4A	0F]	4a]	0cc]
.	4B-	.	.	4G	.	4f	.
.	4A	.	.	2F	.	4cc	.
.	4G	4D	.	.	.	4b-	.
1r	2F	2A	.	1f	.	4a	.
.	.	.	.	.	.	4g	.
.	2F	2A	2c	.	.	[2a	.
=158	=158	=158	=158	=158	=158	=158	=158
1GG	4G	[0D	1B-	1.d	0r	4a]	2r
.	4F	.	.	.	.	4g	.
.	4D	.	.	.	.	1g	2g
.	4E	.	.	.	.	.	.
1D	2F	.	1A	.	.	.	2a
.	2F	.	.	2d	.	2f#i	2a
=159	=159	=159	=159	=159	=159	=159	=159
1GG	2D	1D]	[0G	1d	2r	[0g	2b-
.	2G	.	.	.	2B-	.	1g
2C	2E	1r	.	1r	2G	.	.
2C	2C	.	.	.	2c	.	4f
.	.	.	.	.	.	.	4e
=160	=160	=160	=160	=160	=160	=160	=160
2GG	2G	2r	0G_	2r	2c	0g_	4d
.	.	.	.	.	.	.	4c
2G	2G	2B-	.	2d	2B-	.	2d
2E	1C	2G	.	2e	1c	.	1c
2C	.	2c	.	2e	.	.	.
=161	=161	=161	=161	=161	=161	=161	=161
2G	2r	2c	0G_	2d	2r	0g_	2r
2G	2G	2B-	.	2d	2B-	.	2d
1C	2E	1c	.	1c	2G	.	2e
.	2C	.	.	.	2c	.	2e
=162	=162	=162	=162	=162	=162	=162	=162
2r	2G	2r	0G]	2r	2c	0g]	2d
2G	2G	2B-	.	2d	2B-	.	2d
2E	1C	2G	.	2e	1c	.	4c
.	.	.	.	.	.	.	4d
2C	.	2c	.	2e	.	.	4e
.	.	.	.	.	.	.	4f
=163	=163	=163	=163	=163	=163	=163	=163
2G	1GG	2c	1r	2d	1r	1r	0g
2G	.	2Bni	.	2d	.	.	.
1C	2r	1c	2r	1c	1e	1g	.
.	2G	.	2c	.	.	.	.
=164	=164	=164	=164	=164	=164	=164	=164
1r	2D	1r	2A	1r	2d	2f	1r
.	2G	.	2B-	.	2e	2g	.
2r	1F	2r	1c	2r	1f	1a	2r
2F	.	2A	.	2c	.	.	2f
=165	=165	=165	=165	=165	=165	=165	=165
2D	1r	2A	1r	2d	1r	1r	2f
2G	.	2B-	.	2e	.	.	2g
1F	2r	1c	2r	1f	2r	2r	1a
.	2F	.	2c	.	2f	2a	.
=166	=166	=166	=166	=166	=166	=166	=166
0r	2F	0r	2c	0r	2f	2.a	0r
.	2C	.	2c	.	2e	.	.
.	.	.	.	.	.	4g	.
.	2D	.	2B-	.	2d	2g	.
.	2D	.	2A	.	2d	2f#i	.
=167	=167	=167	=167	=167	=167	=167	=167
2r	1GG	2r	1G	2r	1B-	1g	2r
2G	.	2B-	.	2d	.	.	2g
2F	1r	2c	1r	2f	1r	1r	2.a
2C	.	2c	.	2e	.	.	.
.	.	.	.	.	.	.	4g
=168	=168	=168	=168	=168	=168	=168	=168
2D	0r	2B-	0r	2d	0r	0r	2g
2D	.	2A	.	2d	.	.	2f#i
[1GG	.	1G	.	4d	.	.	1g
.	.	.	.	4c	.	.	.
.	.	.	.	8dL	.	.	.
.	.	.	.	8c	.	.	.
.	.	.	.	8B-	.	.	.
.	.	.	.	8AJ	.	.	.
=169	=169	=169	=169	=169	=169	=169	=169
0GG]	1r	0d	[0G	2B-	0g	0dd	0b-
.	.	.	.	1B-	.	.	.
.	2r	.	.	.	.	.	.
.	2GG	.	.	4G	.	.	.
.	.	.	.	4A	.	.	.
=170	=170	=170	=170	=170	=170	=170	=170
2r	4GG	1B-	0G]	4B-	1.g	1dd	1b-
.	4AA	.	.	4c	.	.	.
2GG	4BB-	.	.	2d	.	.	.
.	4C	.	.	.	.	.	.
4GG	2D	2.G	.	[1d	.	1dd	1b-
4AA	.	.	.	.	.	.	.
4BB-	2D	.	.	.	2d	.	.
4C	.	4F	.	.	.	.	.
=171	=171	=171	=171	=171	=171	=171	=171
1D	4D	0A	0F	1d]	0f	[0dd	0a
.	4E	.	.	.	.	.	.
.	4F	.	.	.	.	.	.
.	4G	.	.	.	.	.	.
1D	1A	.	.	1r	.	.	.
=172	=172	=172	=172	=172	=172	=172	=172
0GG	4B-	2r	0G	2r	[0d	1dd]	2r
.	4A	.	.	.	.	.	.
.	8B-L	2G	.	2g	.	.	2b-
.	8A	.	.	.	.	.	.
.	8G	.	.	.	.	.	.
.	8FJ	.	.	.	.	.	.
.	1G	4G	.	2g	.	2r	2b-
.	.	4A	.	.	.	.	.
.	.	4B-	.	2g	.	2d	2b-
.	.	4c	.	.	.	.	.
=173	=173	=173	=173	=173	=173	=173	=173
0r	1D	1d	0A	[0f	0d_	4d	[0a
.	.	.	.	.	.	4e	.
.	.	.	.	.	.	4f	.
.	.	.	.	.	.	4g	.
.	4D	2r	.	.	.	2a	.
.	4E	.	.	.	.	.	.
.	4F	[2D	.	.	.	2a	.
.	4G	.	.	.	.	.	.
=174	=174	=174	=174	=174	=174	=174	=174
1D	2A	4D]	1r	0f]	0d]	2.d	0a]
.	.	4E	.	.	.	.	.
.	2A	4F	.	.	.	.	.
.	.	4G	.	.	.	4e	.
4D	1D	[1A	1A	.	.	4f	.
4E	.	.	.	.	.	4g	.
4F	.	.	.	.	.	[2a	.
4G	.	.	.	.	.	.	.
=175	=175	=175	=175	=175	=175	=175	=175
2A	0r	1A]	1.c	2r	0r	4a]	0r
.	.	.	.	.	.	4b-	.
2F	.	.	.	2f	.	4cc	.
.	.	.	.	.	.	4b-	.
2F	.	2r	.	2f	.	2a	.
2F	.	2A	2c	2f	.	[2a	.
=176	=176	=176	=176	=176	=176	=176	=176
1G	2r	2B-	1B-	2d	0r	4a]	1r
.	.	.	.	.	.	4g	.
.	2C	2G	.	2e	.	1g	.
1D	2F	2A	1A	1d	.	.	2r
.	2F	2F	.	.	.	2f#i	2a
=177	=177	=177	=177	=177	=177	=177	=177
0GG	2D	4B-	0G	[0d	2r	2g	2b-
.	.	4A	.	.	.	.	.
.	4r	4B-	.	.	2g	2b-	2.g
.	4GG	4c	.	.	.	.	.
.	4GG	2d	.	.	2g	2b-	.
.	4AA	.	.	.	.	.	4f
.	4BB-	2D	.	.	2g	2b-	2d
.	4C	.	.	.	.	.	.
=178	=178	=178	=178	=178	=178	=178	=178
0r	2D	2A	1r	0d]	0f	2a	4d
.	.	.	.	.	.	.	4e
.	2D	2.F	.	.	.	2.dd	4f
.	.	.	.	.	.	.	4g
.	4D	.	1A	.	.	.	2a
.	4E	4G	.	.	.	4cc	.
.	4F	[2A	.	.	.	[2cc	2a
.	4G	.	.	.	.	.	.
=179	=179	=179	=179	=179	=179	=179	=179
0r	2A	4A]	1.c	0r	2r	4cc]	2a
.	.	4G	.	.	.	4b-	.
.	2F	4A	.	.	2f	4a	4cc
.	.	4B-	.	.	.	4g	4b-
.	2F	1c	.	.	2f	1f	4a
.	.	.	.	.	.	.	4g
.	2F	.	2c	.	2f	.	[2a
=180	=180	=180	=180	=180	=180	=180	=180
0r	1G	2r	1B-	0r	0d	2r	4a]
.	.	.	.	.	.	.	4g
.	.	2.d	.	.	.	2g	1g
.	1D	.	1A	.	.	2a	.
.	.	4c	.	.	.	.	.
.	.	2A	.	.	.	2a	2f#i
=181	=181	=181	=181	=181	=181	=181	=181
1r	1GG	1d	[0Gl	2r	1B-	1b-	[0g
.	.	.	.	2d	.	.	.
1C	1r	2c	.	2e-i	1r	1cc	.
.	.	2G	.	2e-i	.	.	.
=182	=182	=182	=182	=182	=182	=182	=182
2BB-	1r	1B-	0G_	2d	2r	1dd	0g_
2GG	.	.	.	2d	2d	.	.
2C	2r	1c	.	1c	2e-i	2r	.
2C	2C	.	.	.	2e-i	2g	.
=183	=183	=183	=183	=183	=183	=183	=183
1GG	2BB-	1d	0G_	2r	2d	1b-	0g_
.	2GG	.	.	2d	2d	.	.
2r	2C	2r	.	2e-i	1c	1cc	.
2C	2C	2G	.	2e-i	.	.	.
=184	=184	=184	=184	=184	=184	=184	=184
2BB-	2GG	1B-	0G_	2d	2r	1dd	0g]
2GG	2D	.	.	2d	2d	.	.
2C	2E-i	1c	.	2c	[1g	2r	.
2C	2E-i	.	.	2G	.	2g	.
=185	=185	=185	=185	=185	=185	=185	=185
[0GGl	[0Dl	1.d	0G_	4G	2g]	2b-	1r
.	.	.	.	4A	.	.	.
.	.	.	.	4B-	2g	2b-	.
.	.	.	.	4c	.	.	.
.	.	.	.	[1dl	2g	2g	2r
.	.	4c	.	.	2g	2b-	2dd
.	.	4B-	.	.	.	.	.
=186	=186	=186	=186	=186	=186	=186	=186
0GG_	0D_	[0B-l	0G_	0d_	[0gl	2b-	2dd
.	.	.	.	.	.	2b-	2dd
.	.	.	.	.	.	4g	4b-
.	.	.	.	.	.	4f	4a
.	.	.	.	.	.	4g	4b-
.	.	.	.	.	.	4a	4cc
=187	=187	=187	=187	=187	=187	=187	=187
0GG]	0D]	0B-]	0G]	0d]	0g]	0b-l	0ddl
==	==	==	==	==	==	==	==
*-	*-	*-	*-	*-	*-	*-	*-
!!!RDF**kern: l=long note in original notation
!!!system-decoration: s1,s2,s3,s4,s5,s6,s7,s8
!!!RDF**kern: i = editorial accidental
!!!ENC: Chris Gage 06-25-2014
!!!END: 2020/10/21/
!!!EED: Jesse Rodin
!!!EEV: 2020/10/23/
!!attribution-level@Jos: 4a (the rest [double question mark])
!!!ONB: Translated from MusicXML and edited on 2020/10/23/ by Craig Sapp
!!muse2ps: C^Probably by Gombert\n@{SCT}^i2I150v95,95,95,95,95,95,95,150z18c112
